build/img/favicons/icon.svg

<svg width="152" height="152" viewBox="0 0 152 152" fill="none" xmlns="http://www.w3.org/2000/svg">
<rect width="152" height="152" fill="#EEEEEE"/>
<path d="M123.886 87.5443L115.688 54.3418C115.117 50.6872 111.565 44 102.051 44C101.42 44 100.815 44.2458 100.369 44.6832C99.9228 45.1207 99.6722 45.7141 99.6722 46.3327C99.6722 46.9514 99.9228 47.5447 100.369 47.9822C100.815 48.4197 101.42 48.6655 102.051 48.6655C109.742 48.6655 110.883 54.4662 110.994 55.1038L118.542 85.7403H115.228C114.885 83.0678 113.957 80.4997 112.506 78.2125C111.055 75.9254 109.117 73.9733 106.824 72.4904C106.106 72.7869 105.493 73.2842 105.061 73.9204C104.63 74.5565 104.399 75.3032 104.398 76.0673C104.406 76.2019 104.406 76.337 104.398 76.4716C106.326 77.7686 107.909 79.5007 109.012 81.5222C110.116 83.5438 110.709 85.7957 110.741 88.0886C110.731 88.8708 110.657 89.6509 110.519 90.4213C110 93.725 108.292 96.7374 105.705 98.9135C103.118 101.09 99.8219 102.286 96.4135 102.286C93.0051 102.286 89.7093 101.09 87.1222 98.9135C84.535 96.7374 82.8275 93.725 82.3084 90.4213C82.1702 89.6509 82.0959 88.8708 82.0863 88.0886C82.1111 85.9311 82.6258 83.8061 83.5928 81.868C82.7907 81.8128 82.04 81.4609 81.4924 80.8835C80.9448 80.3061 80.6413 79.5462 80.6433 78.7577C80.646 78.4752 80.5382 78.2025 80.342 77.9957C78.8077 80.3434 77.8371 83.0022 77.5036 85.7714H74.5541C74.0481 81.1973 71.837 76.9678 68.3454 73.8949C64.8537 70.822 60.3276 69.1224 55.6362 69.1224C50.9448 69.1224 46.4187 70.822 42.9271 73.8949C39.4355 76.9678 37.2244 81.1973 36.7184 85.7714H33.4359L40.9999 55.1038C41.095 54.4662 42.2843 48.6655 49.9434 48.6655C50.5743 48.6655 51.1793 48.4197 51.6254 47.9822C52.0714 47.5447 52.322 46.9514 52.322 46.3327C52.322 45.7141 52.0714 45.1207 51.6254 44.6832C51.1793 44.2458 50.5743 44 49.9434 44C40.429 44 36.8769 50.6872 36.3061 54.3418L28.0919 87.5443C27.9903 87.8822 27.9726 88.2391 28.0404 88.5851C28.1081 88.9311 28.2592 89.2562 28.4812 89.5333C28.7031 89.8103 28.9894 90.0312 29.3162 90.1776C29.643 90.324 30.0007 90.3916 30.3595 90.3747H36.7025C36.8315 91.3366 37.0329 92.2879 37.3051 93.2206C37.4053 93.0501 37.4598 92.8575 37.4637 92.6608C37.4637 91.8359 37.7978 91.0447 38.3926 90.4614C38.9873 89.8782 39.794 89.5505 40.6351 89.5505C40.8926 89.5538 41.1485 89.5904 41.3963 89.6593C41.3272 89.1176 41.2901 88.5724 41.2853 88.0264C41.2895 87.2446 41.3585 86.4645 41.4914 85.6937C41.9995 82.3794 43.7033 79.3539 46.2932 77.1673C48.8831 74.9806 52.1871 73.7779 55.6045 73.7779C59.022 73.7779 62.3259 74.9806 64.9158 77.1673C67.5057 79.3539 69.2096 82.3794 69.7176 85.6937C69.8505 86.4645 69.9195 87.2446 69.9237 88.0264C69.8988 91.7309 68.3872 95.2768 65.7161 97.8963C63.045 100.516 59.4295 101.998 55.6521 102.023C52.5605 102.064 49.5388 101.12 47.0415 99.3324C46.4693 99.8198 45.738 100.09 44.9801 100.094C44.6674 100.098 44.3689 100.223 44.1493 100.441C43.9297 100.66 43.8066 100.954 43.8066 101.261C43.8023 101.696 43.7051 102.125 43.5212 102.52C46.9137 105.278 51.1825 106.785 55.5887 106.782C60.2431 106.801 64.7434 105.147 68.2383 102.132C71.7331 99.1176 73.9801 94.9512 74.5541 90.4213H77.4401C77.9624 94.9814 80.1795 99.1929 83.6679 102.251C87.1562 105.309 91.6711 107 96.3501 107C101.029 107 105.544 105.309 109.032 102.251C112.521 99.1929 114.738 94.9814 115.26 90.4213H121.603C121.97 90.4473 122.337 90.3843 122.673 90.2377C123.009 90.0912 123.303 89.8657 123.528 89.5812C123.754 89.2967 123.905 88.962 123.968 88.6067C124.03 88.2514 124.002 87.8865 123.886 87.5443Z" fill="black"/>
</svg>

<svg width="152" height="152" fill="none" xmlns="http://www.w3.org/2000/svg"><path fill="#EEE" d="M0 0h152v152H0z"/><path d="M123.886 87.544l-8.198-33.202C115.117 50.687 111.565 44 102.051 44c-.631 0-1.236.246-1.682.683a2.31 2.31 0 00-.697 1.65c0 .618.25 1.212.697 1.65a2.402 2.402 0 001.682.683c7.691 0 8.832 5.8 8.943 6.438l7.548 30.636h-3.314a18.429 18.429 0 00-2.722-7.527 18.838 18.838 0 00-5.682-5.723 3.952 3.952 0 00-1.763 1.43 3.835 3.835 0 00-.663 2.147c.008.135.008.27 0 .405a14.416 14.416 0 014.614 5.05 14.107 14.107 0 011.729 6.567c-.01.782-.084 1.562-.222 2.332a13.929 13.929 0 01-4.814 8.492 14.437 14.437 0 01-9.291 3.373 14.437 14.437 0 01-9.292-3.373 13.928 13.928 0 01-4.814-8.492c-.138-.77-.212-1.55-.222-2.332a14.3 14.3 0 011.507-6.221 3.197 3.197 0 01-2.1-.984 3.077 3.077 0 01-.85-2.126 1.092 1.092 0 00-.301-.762 18.187 18.187 0 00-2.838 7.775h-2.95c-.506-4.574-2.717-8.803-6.209-11.876a19.243 19.243 0 00-12.709-4.773c-4.691 0-9.217 1.7-12.709 4.773-3.492 3.073-5.703 7.302-6.209 11.876h-3.282L41 55.104c.095-.638 1.284-6.438 8.943-6.438a2.4 2.4 0 001.682-.684 2.31 2.31 0 00.697-1.65 2.31 2.31 0 00-.697-1.649A2.403 2.403 0 0049.943 44c-9.514 0-13.066 6.687-13.637 10.342l-8.214 33.202a2.166 2.166 0 00.39 1.99c.221.276.507.497.834.644a2.29 2.29 0 001.044.197h6.343c.128.962.33 1.913.602 2.846.1-.17.155-.364.159-.56 0-.825.334-1.616.929-2.2a3.203 3.203 0 012.242-.91 3 3 0 01.761.108 13.868 13.868 0 01-.11-1.633c.003-.781.072-1.561.205-2.332a13.927 13.927 0 014.802-8.527 14.438 14.438 0 019.312-3.39 14.44 14.44 0 019.31 3.39 13.927 13.927 0 014.803 8.527c.132.77.201 1.55.206 2.332a13.955 13.955 0 01-4.208 9.87 14.512 14.512 0 01-10.064 4.127 14.47 14.47 0 01-8.61-2.69 3.206 3.206 0 01-2.062.761 1.202 1.202 0 00-.83.347c-.22.219-.343.513-.343.82a3.054 3.054 0 01-.286 1.259 19.115 19.115 0 0012.068 4.262 19.251 19.251 0 0012.65-4.65c3.494-3.014 5.741-7.18 6.315-11.71h2.886c.522 4.56 2.74 8.77 6.228 11.829A19.245 19.245 0 0096.35 107c4.679 0 9.194-1.691 12.682-4.749 3.489-3.058 5.706-7.27 6.228-11.83h6.343a2.28 2.28 0 001.07-.183 2.22 2.22 0 00.855-.657 2.154 2.154 0 00.358-2.037z" fill="#000"/></svg>
